Adwaita++-Light/panel/16/security-medium.svg

<svg height="16" width="16" xmlns="http://www.w3.org/2000/svg">
  <path d="m2 1v7.5253906c0 4.3312504 6 6.4746094 6 6.4746094s6-2.143359 6-6.4746094v-7.5253906zm2 2h4v4h4v2c0 3.008333-4 4-4 4v-6h-4z" fill="#444"/>
  <circle cx="14.5" cy="14.5" fill="#4285f4" r="1.5"/>
</svg>

<svg xmlns="http://www.w3.org/2000/svg" width="16" height="16" version="1.1">
 <defs>
  <style id="current-color-scheme" type="text/css">
   .ColorScheme-Text { color:#444444; } .ColorScheme-Highlight { color:#4285f4; }
  </style>
 </defs>
 <path style="fill:currentColor" class="ColorScheme-Text" d="M 2 1 L 2 8.5253906 C 2 12.856641 8 15 8 15 C 8 15 14 12.856641 14 8.5253906 L 14 1 L 2 1 z M 4 3 L 8 3 L 8 7 L 12 7 L 12 9 C 12 12.008333 8 13 8 13 L 8 7 L 4 7 L 4 3 z"/>
 <circle style="fill:currentColor" class="ColorScheme-Highlight" cx="14.5" cy="14.5" r="1.5"/>
</svg>
